X: 3
T: Lizzy In The Lowground
R: reel
M: 4/4
L: 1/8
K: Gdor
|:d3B ABde|fabf abed|f3b b2ba|bfde fdef|d3B ABde|fabf abed|bfae fdaf|[1 dBAd Bddc :|[2 dBAd BAFE |||:D3E DEFA|B2fB edBA|B2fB edBA|B2fB AFEF|D3E DEFA|B2fB edBA|B2fB edBd|[1 dBAd BAFE:|[2 dBAd Bdde ||


Tune 4782	Setting 17252

